src/asset/24px/shield.svg

<svg width="24" height="24" viewBox="0 0 24 24" fill="none" xmlns="http://www.w3.org/2000/svg">
<path fill-rule="evenodd" clip-rule="evenodd" d="M12.9487 2.68377C12.8126 2.27543 12.4304 2 12 2C11.5696 2 11.1874 2.27543 11.0513 2.68377C11.0163 2.78876 10.9813 2.90079 10.9445 3.01815C10.7745 3.56153 10.5687 4.21914 10.1679 4.8203C9.7228 5.48803 9.08855 6 8 6C6.70328 6 6.0093 5.64627 5.61782 5.33868C5.41208 5.17703 5.26081 5.00518 5.13637 4.84341C5.08495 4.77656 5.04261 4.71765 4.99617 4.65303L4.95503 4.5959L4.95058 4.58974C4.90615 4.52822 4.82641 4.41781 4.73268 4.31914C4.55008 4.12265 4.28939 3.99973 4 3.99973C3.44772 3.99973 3 4.44744 3 4.99973V10.9997C3 14.9334 4.78104 17.5751 6.73113 19.2612C8.65482 20.9244 10.7438 21.6647 11.4699 21.8878C11.8182 21.9949 12.1818 21.9949 12.5301 21.8878C13.2562 21.6647 15.3452 20.9244 17.2689 19.2612C19.219 17.5751 21 14.9334 21 10.9997V4.99973L21 4.99799C20.9991 4.4465 20.5517 3.99973 20 3.99973C19.7106 3.99973 19.4499 4.12267 19.2673 4.31918C19.1736 4.41783 19.0939 4.5282 19.0494 4.58972L19.045 4.5959L19.0038 4.65302C18.9574 4.71765 18.9151 4.77656 18.8636 4.84341C18.7392 5.00518 18.5879 5.17703 18.3822 5.33868C17.9907 5.64627 17.2967 6 16 6C14.9115 6 14.2772 5.48803 13.8321 4.8203C13.4313 4.21914 13.2255 3.56155 13.0555 3.01817C13.0188 2.90084 12.9837 2.78873 12.9487 2.68377ZM19 7.31935C18.2686 7.72146 17.298 8 16 8C14.6911 8 13.7162 7.5367 13 6.8971V19.5821C13.8195 19.2288 14.9238 18.6448 15.9608 17.7483C17.5614 16.3643 19 14.2434 19 10.9997V7.31935ZM11 19.5821V6.8971C10.2838 7.5367 9.30891 8 8 8C6.70196 8 5.73143 7.72146 5 7.31935V10.9997C5 14.2434 6.43859 16.3643 8.03922 17.7483C9.07619 18.6448 10.1805 19.2288 11 19.5821Z" fill="currentColor"/>
</svg>

<svg width="24" height="24" fill="none" xmlns="http://www.w3.org/2000/svg"><path fill-rule="evenodd" clip-rule="evenodd" d="M12.949 2.684a1 1 0 00-1.898 0c-.035.105-.07.217-.107.334-.17.544-.375 1.201-.776 1.802C9.723 5.488 9.088 6 8 6c-1.297 0-1.99-.354-2.382-.661a2.725 2.725 0 01-.482-.496 6.932 6.932 0 01-.14-.19l-.041-.057-.004-.006a2.623 2.623 0 00-.218-.27A1 1 0 003 5v6c0 3.933 1.781 6.575 3.731 8.261 1.924 1.663 4.013 2.404 4.739 2.627a1.79 1.79 0 001.06 0c.726-.223 2.815-.964 4.739-2.627C19.219 17.575 21 14.933 21 11V4.998a1 1 0 00-1.733-.679c-.093.099-.173.21-.218.27l-.004.007-.041.057a6.677 6.677 0 01-.14.19 2.724 2.724 0 01-.482.496C17.991 5.646 17.297 6 16 6c-1.088 0-1.723-.512-2.168-1.18-.4-.6-.607-1.258-.777-1.802-.036-.117-.071-.23-.106-.334zM19 7.319c-.731.402-1.702.681-3 .681-1.309 0-2.284-.463-3-1.103v12.685c.82-.353 1.924-.937 2.96-1.834C17.562 16.364 19 14.243 19 11V7.32zm-8 12.263V6.897C10.284 7.537 9.309 8 8 8c-1.298 0-2.269-.279-3-.68V11c0 3.243 1.439 5.364 3.04 6.748A11.588 11.588 0 0011 19.582z" fill="currentColor"/></svg>
